images/dist/icons/quality.svg

<svg width="114" height="114" viewBox="0 0 114 114" fill="none" xmlns="http://www.w3.org/2000/svg">
<g filter="url(#filter0_d)">
<path d="M84.5 101H29.5C20.3865 101 13 93.6135 13 84.5V29.5C13 20.3865 20.3865 13 29.5 13H84.5C93.6135 13 101 20.3865 101 29.5V84.5C101 93.6135 93.6135 101 84.5 101Z" fill="#F5E6FE"/>
<path d="M64.461 57.9376L65.0082 56.7331C65.3162 56.0539 65.33 55.2701 65.044 54.5799C64.758 53.8924 64.1942 53.3479 63.4985 53.0894L62.2912 52.6521L61.8265 51.4174C61.5652 50.7189 61.0207 50.1579 60.3332 49.8719C59.6457 49.5859 58.8592 49.5996 58.18 49.9076L57.0002 50.4466L55.8177 49.9076C55.1385 49.5996 54.3547 49.5859 53.6645 49.8719C52.977 50.1579 52.4325 50.7216 52.174 51.4174L51.7367 52.6246L50.502 53.0894C49.8035 53.3506 49.2425 53.8951 48.9565 54.5826C48.6705 55.2701 48.6842 56.0539 48.9922 56.7359L49.5395 57.8964L48.9922 59.1009C48.6842 59.7801 48.6705 60.5639 48.9565 61.2541C49.2425 61.9416 49.8062 62.4861 50.502 62.7446L51.5002 63.1021V77.6248C51.5002 78.1666 51.8192 78.6561 52.3115 78.8788C52.8037 79.1016 53.384 79.0136 53.7882 78.6533L57.0002 75.7988L60.2122 78.6533C60.468 78.8816 60.7952 78.9998 61.1252 78.9998C61.315 78.9998 61.5075 78.9613 61.689 78.8788C62.184 78.6561 62.5002 78.1666 62.5002 77.6248V63.1186L63.4985 62.7446C64.197 62.4834 64.758 61.9389 65.044 61.2514C65.33 60.5639 65.3162 59.7801 65.0082 59.0981L64.461 57.9376ZM57.9132 72.9306C57.652 72.6996 57.3275 72.5841 57.0002 72.5841C56.673 72.5841 56.3485 72.6996 56.0872 72.9306L54.2502 74.5641V66.1243C54.7782 66.2123 55.3255 66.1518 55.8177 65.9263L56.9782 65.3791L58.1827 65.9263C58.5375 66.0858 58.917 66.1683 59.2992 66.1683C59.4532 66.1683 59.599 66.1051 59.7502 66.0776V74.5641L57.9132 72.9306Z" fill="#D9A4FC"/>
<path d="M73.5 35H40.5C37.475 35 35 37.475 35 40.5V69.8343C35 72.8593 37.475 75.3343 40.5 75.3343H47.8342V71.6685H40.5C39.4907 71.6685 38.6658 70.8435 38.6658 69.8343V44.1685H75.3343V69.8343C75.3343 70.8435 74.5093 71.6685 73.5 71.6685H66.1658V75.3343H73.5C76.525 75.3343 79 72.8593 79 69.8343V40.5C79 37.475 76.525 35 73.5 35Z" fill="#BE63F9"/>
</g>
<defs>
<filter id="filter0_d" x="0" y="0" width="114" height="114" filterUnits="userSpaceOnUse" color-interpolation-filters="sRGB">
<feFlood flood-opacity="0" result="BackgroundImageFix"/>
<feColorMatrix in="SourceAlpha" type="matrix" values="0 0 0 0 0 0 0 0 0 0 0 0 0 0 0 0 0 0 127 0"/>
<feMorphology radius="12" operator="erode" in="SourceAlpha" result="effect1_dropShadow"/>
<feOffset/>
<feGaussianBlur stdDeviation="12.5"/>
<feColorMatrix type="matrix" values="0 0 0 0 0.745098 0 0 0 0 0.388235 0 0 0 0 0.976471 0 0 0 0.15 0"/>
<feBlend mode="normal" in2="BackgroundImageFix" result="effect1_dropShadow"/>
<feBlend mode="normal" in="SourceGraphic" in2="effect1_dropShadow" result="shape"/>
</filter>
</defs>
</svg>

<svg width="114" height="114" fill="none" xmlns="http://www.w3.org/2000/svg"><g filter="url(#filter0_d)"><path d="M84.5 101h-55C20.387 101 13 93.614 13 84.5v-55C13 20.387 20.387 13 29.5 13h55c9.114 0 16.5 7.387 16.5 16.5v55c0 9.114-7.386 16.5-16.5 16.5z" fill="#F5E6FE"/><path d="M64.461 57.938l.547-1.205c.308-.68.322-1.463.036-2.153a2.702 2.702 0 00-1.545-1.49l-1.208-.438-.464-1.235a2.707 2.707 0 00-1.494-1.545 2.714 2.714 0 00-2.153.036l-1.18.539-1.182-.54a2.713 2.713 0 00-2.154-.035 2.701 2.701 0 00-1.49 1.545l-.437 1.208-1.235.464a2.706 2.706 0 00-1.546 1.494 2.714 2.714 0 00.036 2.153l.547 1.16-.547 1.205a2.713 2.713 0 00-.035 2.153c.285.688.85 1.232 1.545 1.49l.998.358v14.523c0 .542.32 1.031.812 1.254a1.372 1.372 0 001.476-.226L57 75.8l3.212 2.854a1.37 1.37 0 001.477.226c.495-.223.811-.712.811-1.254V63.119l.998-.374a2.706 2.706 0 001.546-1.494 2.714 2.714 0 00-.036-2.153l-.547-1.16zM57.913 72.93a1.372 1.372 0 00-1.826 0l-1.837 1.633v-8.44a2.696 2.696 0 001.568-.198l1.16-.547 1.205.547c.355.16.734.242 1.116.242.154 0 .3-.063.451-.09v8.486l-1.837-1.633z" fill="#D9A4FC"/><path d="M73.5 35h-33c-3.025 0-5.5 2.475-5.5 5.5v29.334c0 3.025 2.475 5.5 5.5 5.5h7.334v-3.666H40.5a1.839 1.839 0 01-1.834-1.834V44.168h36.668v25.666a1.84 1.84 0 01-1.834 1.834h-7.334v3.666H73.5c3.025 0 5.5-2.475 5.5-5.5V40.5c0-3.025-2.475-5.5-5.5-5.5z" fill="#BE63F9"/></g><defs><filter id="filter0_d" x="0" y="0" width="114" height="114" filterUnits="userSpaceOnUse" color-interpolation-filters="sRGB"><feFlood flood-opacity="0" result="BackgroundImageFix"/><feColorMatrix in="SourceAlpha" values="0 0 0 0 0 0 0 0 0 0 0 0 0 0 0 0 0 0 127 0"/><feMorphology radius="12" in="SourceAlpha" result="effect1_dropShadow"/><feOffset/><feGaussianBlur stdDeviation="12.5"/><feColorMatrix values="0 0 0 0 0.745098 0 0 0 0 0.388235 0 0 0 0 0.976471 0 0 0 0.15 0"/><feBlend in2="BackgroundImageFix" result="effect1_dropShadow"/><feBlend in="SourceGraphic" in2="effect1_dropShadow" result="shape"/></filter></defs></svg>
